X:26
T:Rio Grande (a)
M:6/8
L:1/8
Q:1/4=3D100
K:Eb
B,2B,|\
EEE GGG|FEF E3 |B3-  B2G|cB2- B2B|
cde BAG|ABA GEF|G>AG FEF|E3-  EEF|
G3  FEF|E3- Ez2|B3-  B2G|cB2- B2B|
cde BAG|ABA GEF|G>AG FEF|E3 ||
